app/assets/images/heroicons/mini/arrow-turn-down-right.svg

<svg width="20" height="20" viewBox="0 0 20 20" fill="none" xmlns="http://www.w3.org/2000/svg">
<path fill-rule="evenodd" clip-rule="evenodd" d="M3.75 3C4.16421 3 4.5 3.33579 4.5 3.75V11.25H15.4393L13.4697 9.28033C13.1768 8.98744 13.1768 8.51256 13.4697 8.21967C13.7626 7.92678 14.2374 7.92678 14.5303 8.21967L17.7803 11.4697C18.0732 11.7626 18.0732 12.2374 17.7803 12.5303L14.5303 15.7803C14.2374 16.0732 13.7626 16.0732 13.4697 15.7803C13.1768 15.4874 13.1768 15.0126 13.4697 14.7197L15.4393 12.75H3.75C3.33579 12.75 3 12.4142 3 12V3.75C3 3.33579 3.33579 3 3.75 3Z" fill="black"/>
</svg>

<svg xmlns="http://www.w3.org/2000/svg" viewBox="0 0 20 20" fill="currentColor" aria-hidden="true" data-slot="icon">
  <path fill-rule="evenodd" d="M3.75 3a.75.75 0 0 1 .75.75v7.5h10.94l-1.97-1.97a.75.75 0 0 1 1.06-1.06l3.25 3.25a.75.75 0 0 1 0 1.06l-3.25 3.25a.75.75 0 1 1-1.06-1.06l1.97-1.97H3.75A.75.75 0 0 1 3 12V3.75A.75.75 0 0 1 3.75 3Z" clip-rule="evenodd"/>
</svg>
